X: 21056
T: June Clover
R: waltz
M: 3/4
K: Dmajor
F2 G2|A3 ^GAG|A2 d2 e2|f3 =f^f=f|f2 e2 d2|A4 d2|e4 d2|c6-|c2
c2 d2|e3 ^ded|e2 d2 B2|c3 ^BcB|c2 c2 d2|e4 d2|c4 B2|A6-|A2
F2 G2|A3 ^GAG|A2 d2 e2|f3 =f^f=f|f2 e2 d2|A4 d2|e4 d2|c6-|c2
B2 A2|g3 fgf|g2 f2 e2|f3 =f^f=f|f2 e2 d2|c6-|c2 B2 c2|1 d6-|d2:|2 d6-|"fine" d4||
K:A
|:E2|c6|c6|c6-|c2 B2 A2|F6|=F6|E6-|E6|
G6|G2 F2 E2|e6|c6|B6|c2 A2 F2|B6-|B6|
c6|c6|c6-|c2 B2 A2|F6|=F6|E6-|E6|
G6|G2 F2 E2|e6|c4 A2|B3 c B2|F4 G2|A6-|"D.C. al fine" A6:|

